my-app/src/IMG/snow.svg

<svg width="34" height="35" viewBox="0 0 34 35" fill="none" xmlns="http://www.w3.org/2000/svg">
<g filter="url(#filter0_d_503_2175)">
<path fill-rule="evenodd" clip-rule="evenodd" d="M28.6382 20.6134C28.6922 20.893 28.5092 21.1634 28.2296 21.2173L25.9053 21.6655L26.4621 23.7438C26.5358 24.0188 26.3726 24.3016 26.0975 24.3753C25.8225 24.449 25.5397 24.2858 25.466 24.0107L24.7658 21.3975C24.7288 21.2592 24.7509 21.1118 24.8268 20.9905C24.9027 20.8691 25.0257 20.7848 25.1662 20.7577L28.0343 20.2047C28.3139 20.1508 28.5843 20.3337 28.6382 20.6134Z" fill="white"/>
<path fill-rule="evenodd" clip-rule="evenodd" d="M8.04805 10.9034C8.11508 11.1536 7.98614 11.4147 7.74674 11.5135L5.51587 12.4344C5.25265 12.5431 4.95117 12.4178 4.84251 12.1546C4.73385 11.8914 4.85915 11.5899 5.12237 11.4812L6.93476 10.733L6.4056 8.75818C6.33189 8.48312 6.49513 8.20038 6.7702 8.12667C7.04527 8.05297 7.328 8.21621 7.40171 8.49128L8.04805 10.9034Z" fill="white"/>
<path fill-rule="evenodd" clip-rule="evenodd" d="M26.3447 8.11996C26.6134 8.21408 26.755 8.50826 26.6609 8.77703L25.8786 11.0111L27.9548 11.5757C28.2295 11.6505 28.3917 11.9338 28.317 12.2086C28.2423 12.4834 27.9589 12.6456 27.6841 12.5709L25.0736 11.8609C24.9355 11.8234 24.8192 11.7301 24.7525 11.6034C24.6859 11.4767 24.6749 11.328 24.7222 11.193L25.6876 8.4362C25.7817 8.16743 26.0759 8.02585 26.3447 8.11996Z" fill="white"/>
<path fill-rule="evenodd" clip-rule="evenodd" d="M7.59234 21.0269C7.84226 21.0948 8.00298 21.3376 7.96791 21.5943L7.64111 23.9855C7.60255 24.2677 7.34256 24.4651 7.06041 24.4266C6.77827 24.388 6.5808 24.128 6.61936 23.8459L6.88485 21.9032L4.91198 21.3667C4.63719 21.2919 4.475 21.0086 4.54973 20.7338C4.62446 20.459 4.9078 20.2968 5.1826 20.3716L7.59234 21.0269Z" fill="white"/>
<path fill-rule="evenodd" clip-rule="evenodd" d="M14.3007 3.83187C14.5159 3.64537 14.8415 3.66863 15.028 3.88383L16.5783 5.67264L18.0997 4.15123C18.3011 3.94986 18.6276 3.94986 18.8289 4.15123C19.0303 4.35259 19.0303 4.67907 18.8289 4.88043L16.916 6.79342C16.8148 6.89463 16.676 6.94921 16.533 6.94411C16.3899 6.93901 16.2554 6.87468 16.1617 6.76651L14.2487 4.55922C14.0622 4.34402 14.0855 4.01838 14.3007 3.83187Z" fill="white"/>
<path fill-rule="evenodd" clip-rule="evenodd" d="M16.1868 26.5184C16.3699 26.3353 16.6605 26.3164 16.8657 26.4743L18.7787 27.9458C19.0044 28.1195 19.0467 28.4432 18.873 28.6689C18.6994 28.8946 18.3757 28.9369 18.15 28.7632L16.5958 27.5677L15.1501 29.0134C14.9488 29.2148 14.6223 29.2148 14.4209 29.0134C14.2196 28.8121 14.2196 28.4856 14.4209 28.2842L16.1868 26.5184Z" fill="white"/>
<path fill-rule="evenodd" clip-rule="evenodd" d="M29.0451 23.4473C28.8553 23.7761 28.4348 23.8887 28.106 23.6989L4.52996 10.0873C4.20114 9.89744 4.08847 9.47697 4.27832 9.14815C4.46817 8.81932 4.88864 8.70666 5.21746 8.8965L28.7935 22.5081C29.1223 22.698 29.235 23.1184 29.0451 23.4473Z" fill="white"/>
<path fill-rule="evenodd" clip-rule="evenodd" d="M27.8611 18.2562C27.9846 18.6152 27.7937 19.0064 27.4347 19.13L23.719 20.4088L24.1806 24.2401C24.226 24.6171 23.9572 24.9595 23.5803 25.0049C23.2033 25.0503 22.8609 24.7815 22.8155 24.4046L22.2874 20.0217C22.2487 19.7 22.4398 19.3948 22.7463 19.2894L26.9873 17.8298C27.3463 17.7063 27.7375 17.8972 27.8611 18.2562Z" fill="white"/>
<path fill-rule="evenodd" clip-rule="evenodd" d="M11.0344 12.5591C11.0781 12.8688 10.9074 13.1689 10.6189 13.2896L7.03479 14.7886C6.6845 14.9351 6.28177 14.7699 6.13526 14.4196C5.98876 14.0693 6.15397 13.6666 6.50426 13.5201L9.59859 12.2259L9.07128 8.49615C9.01813 8.12019 9.27981 7.77233 9.65577 7.71918C10.0317 7.66603 10.3796 7.92771 10.4327 8.30367L11.0344 12.5591Z" fill="white"/>
<path fill-rule="evenodd" clip-rule="evenodd" d="M28.9985 9.19409C29.1871 9.52362 29.0729 9.94367 28.7434 10.1323L5.11682 23.656C4.78729 23.8446 4.36724 23.7304 4.17862 23.4008C3.99 23.0713 4.10423 22.6512 4.43376 22.4626L28.0603 8.93895C28.3898 8.75033 28.8099 8.86456 28.9985 9.19409Z" fill="white"/>
<path fill-rule="evenodd" clip-rule="evenodd" d="M23.917 7.60527C24.2894 7.67917 24.5314 8.04099 24.4575 8.41343L23.6928 12.2679L27.2359 13.797C27.5845 13.9475 27.7452 14.352 27.5947 14.7007C27.4443 15.0493 27.0397 15.2099 26.6911 15.0595L22.6379 13.3102C22.3403 13.1818 22.1729 12.8631 22.2359 12.5452L23.1088 8.14582C23.1827 7.77339 23.5446 7.53137 23.917 7.60527Z" fill="white"/>
<path fill-rule="evenodd" clip-rule="evenodd" d="M10.5263 19.2793C10.8159 19.3973 10.9894 19.6959 10.9485 20.0059L10.4402 23.8575C10.3906 24.2339 10.0451 24.4988 9.66869 24.4491C9.29226 24.3994 9.02737 24.054 9.07705 23.6776L9.51585 20.3524L6.02738 18.9311C5.67575 18.7879 5.50683 18.3867 5.65009 18.035C5.79335 17.6834 6.19453 17.5145 6.54617 17.6577L10.5263 19.2793Z" fill="white"/>
<path fill-rule="evenodd" clip-rule="evenodd" d="M16.5513 2.0625C16.931 2.0625 17.2388 2.3703 17.2388 2.75V29.9732C17.2388 30.3529 16.931 30.6607 16.5513 30.6607C16.1716 30.6607 15.8638 30.3529 15.8638 29.9732V2.75C15.8638 2.3703 16.1716 2.0625 16.5513 2.0625Z" fill="white"/>
<path fill-rule="evenodd" clip-rule="evenodd" d="M12.648 5.68342C12.8971 5.3969 13.3314 5.3666 13.6179 5.61575L16.5832 8.19428L19.6704 5.87885C19.9742 5.65103 20.4051 5.71259 20.6329 6.01635C20.8607 6.3201 20.7992 6.75103 20.4954 6.97885L16.9638 9.62759C16.7045 9.82203 16.3447 9.80903 16.1001 9.59639L12.7156 6.65333C12.4291 6.40419 12.3988 5.96994 12.648 5.68342Z" fill="white"/>
<path fill-rule="evenodd" clip-rule="evenodd" d="M16.1276 23.1042C16.3739 22.9115 16.7192 22.9093 16.9679 23.0988L20.0581 25.4532C20.3602 25.6833 20.4185 26.1147 20.1884 26.4167C19.9582 26.7188 19.5269 26.7771 19.2248 26.547L16.5569 24.5143L13.5905 26.8358C13.2915 27.0698 12.8594 27.0171 12.6254 26.7181C12.3914 26.4191 12.4441 25.987 12.7431 25.753L16.1276 23.1042Z" fill="white"/>
<path fill-rule="evenodd" clip-rule="evenodd" d="M12.5092 9.52397C12.6949 9.40835 12.9247 9.38805 13.1278 9.46931L16.5849 10.8522L20.3291 9.74277C20.5172 9.68704 20.7201 9.71432 20.8868 9.81774C21.0536 9.92116 21.1681 10.0909 21.2017 10.2841L21.7512 13.4435L24.2338 15.7882C24.3737 15.9203 24.4518 16.105 24.4492 16.2973C24.4466 16.4897 24.3636 16.6721 24.2202 16.8004L21.5816 19.1612L20.6028 23.0767C20.5538 23.2727 20.421 23.4373 20.2397 23.5266C20.0584 23.6159 19.847 23.621 19.6617 23.5404L16.5144 22.172L13.082 23.2704C12.8818 23.3345 12.6632 23.3034 12.4887 23.186C12.3143 23.0687 12.2031 22.878 12.187 22.6683L11.9193 19.1886L8.68214 17.1654C8.4899 17.0452 8.36925 16.838 8.35963 16.6115C8.35001 16.385 8.45266 16.1684 8.63401 16.0324L11.9166 13.5704L12.187 10.0549C12.2038 9.83675 12.3234 9.6396 12.5092 9.52397ZM13.4862 11.0936L13.2636 13.9863C13.2485 14.1837 13.149 14.3649 12.9907 14.4836L10.2611 16.5308L12.9425 18.2066C13.1277 18.3224 13.2469 18.5192 13.2636 18.7369L13.4913 21.6958L16.3418 20.7836C16.5006 20.7328 16.6725 20.7414 16.8254 20.8079L19.4657 21.9558L20.2989 18.6229C20.3323 18.4894 20.4049 18.369 20.5074 18.2773L22.746 16.2744L20.641 14.2863C20.5331 14.1844 20.4611 14.0504 20.4357 13.9043L19.9794 11.2805L16.7466 12.2383C16.5983 12.2823 16.4396 12.2749 16.296 12.2175L13.4862 11.0936Z" fill="white"/>
<path fill-rule="evenodd" clip-rule="evenodd" d="M16.5392 11.0637C16.7345 11.0591 16.9157 11.1652 17.0071 11.3379L18.1701 13.5348L20.9171 13.2731C21.1077 13.255 21.2926 13.3439 21.3974 13.5042C21.5022 13.6644 21.5097 13.8695 21.4167 14.0369L20.0978 16.4108L21.395 18.3565C21.5004 18.5147 21.5103 18.7181 21.4206 18.8858C21.3308 19.0534 21.1561 19.1581 20.9659 19.1581H18.202L17.0174 21.6591C16.932 21.8394 16.7502 21.9542 16.5507 21.954C16.3512 21.9537 16.1698 21.8384 16.0848 21.6579L15.0304 19.4174L12.6685 19.1549C12.4896 19.1351 12.334 19.0234 12.258 18.8603C12.182 18.6971 12.1965 18.5062 12.2964 18.3565L13.5772 16.4352L12.0021 14.0725C11.8915 13.9065 11.8864 13.6917 11.9892 13.5208C12.0919 13.3499 12.284 13.2535 12.4824 13.2734L15.0628 13.5314L16.0848 11.3596C16.168 11.1828 16.3439 11.0683 16.5392 11.0637ZM16.5785 12.7324L15.8407 14.3003C15.7477 14.498 15.5402 14.6155 15.3228 14.5938L13.4652 14.408L14.6259 16.1492C14.7414 16.3224 14.7414 16.548 14.6259 16.7212L13.6244 18.2236L15.4311 18.4243C15.6093 18.4441 15.7644 18.555 15.8407 18.7172L16.5529 20.2307L17.4097 18.4217C17.495 18.2417 17.6765 18.1268 17.8757 18.1268H20.0025L19.0654 16.7212C18.9583 16.5606 18.9499 16.3535 19.0437 16.1848L20.0393 14.3926L17.9246 14.594C17.7169 14.6138 17.5177 14.5064 17.42 14.322L16.5785 12.7324Z" fill="white"/>
</g>
<defs>
<filter id="filter0_d_503_2175" x="0" y="0" width="37" height="37" filterUnits="userSpaceOnUse" color-interpolation-filters="sRGB">
<feFlood flood-opacity="0" result="BackgroundImageFix"/>
<feColorMatrix in="SourceAlpha" type="matrix" values="0 0 0 0 0 0 0 0 0 0 0 0 0 0 0 0 0 0 127 0" result="hardAlpha"/>
<feOffset dx="4" dy="4"/>
<feColorMatrix type="matrix" values="0 0 0 0 0 0 0 0 0 0 0 0 0 0 0 0 0 0 0.2 0"/>
<feBlend mode="normal" in2="BackgroundImageFix" result="effect1_dropShadow_503_2175"/>
<feBlend mode="normal" in="SourceGraphic" in2="effect1_dropShadow_503_2175" result="shape"/>
</filter>
</defs>
</svg>

<svg width="34" height="35" fill="none" xmlns="http://www.w3.org/2000/svg"><g filter="url(#a)" fill-rule="evenodd" clip-rule="evenodd" fill="#fff"><path d="M28.638 20.613a.516.516 0 0 1-.408.604l-2.325.449.557 2.078a.516.516 0 0 1-.996.267l-.7-2.613a.516.516 0 0 1 .4-.64l2.868-.553c.28-.054.55.129.604.408ZM8.048 10.903a.516.516 0 0 1-.301.61l-2.231.921a.516.516 0 1 1-.394-.953l1.813-.748-.53-1.975a.516.516 0 1 1 .997-.267l.646 2.412ZM26.345 8.12c.268.094.41.388.316.657l-.782 2.234 2.076.565a.516.516 0 0 1-.27.995l-2.611-.71a.516.516 0 0 1-.352-.668l.966-2.757a.516.516 0 0 1 .657-.316ZM7.592 21.027c.25.068.411.31.376.567l-.327 2.391a.516.516 0 0 1-1.022-.14l.266-1.942-1.973-.536a.516.516 0 0 1 .27-.995l2.41.655ZM14.3 3.832a.516.516 0 0 1 .728.052l1.55 1.789L18.1 4.15a.516.516 0 1 1 .729.73l-1.913 1.912a.516.516 0 0 1-.754-.026l-1.913-2.208a.516.516 0 0 1 .052-.727ZM16.187 26.518a.516.516 0 0 1 .679-.044l1.913 1.472a.516.516 0 0 1-.629.817l-1.554-1.195-1.446 1.445a.516.516 0 1 1-.73-.729l1.767-1.766Z"/><path d="M29.045 23.447a.687.687 0 0 1-.939.252L4.53 10.087a.688.688 0 0 1 .687-1.19l23.577 13.611c.328.19.441.61.251.94Z"/><path d="M27.861 18.256a.688.688 0 0 1-.426.874l-3.716 1.279.462 3.831a.688.688 0 0 1-1.366.165l-.528-4.383a.688.688 0 0 1 .46-.733l4.24-1.46a.688.688 0 0 1 .874.427ZM11.034 12.56a.688.688 0 0 1-.415.73l-3.584 1.499a.688.688 0 0 1-.53-1.269l3.094-1.294-.528-3.73a.687.687 0 1 1 1.362-.192l.601 4.255ZM28.998 9.194c.19.33.075.75-.255.938L5.117 23.656a.687.687 0 1 1-.683-1.193L28.06 8.939a.688.688 0 0 1 .939.255Z"/><path d="M23.917 7.605a.687.687 0 0 1 .54.808l-.764 3.855 3.543 1.529a.688.688 0 0 1-.545 1.262l-4.053-1.749a.687.687 0 0 1-.402-.765l.873-4.4a.688.688 0 0 1 .808-.54ZM10.526 19.28c.29.117.463.416.422.726l-.508 3.852a.687.687 0 1 1-1.363-.18l.439-3.326-3.489-1.42a.687.687 0 1 1 .52-1.274l3.98 1.621ZM16.551 2.063c.38 0 .688.307.688.687v27.223a.687.687 0 1 1-1.375 0V2.75c0-.38.308-.688.687-.688Z"/><path d="M12.648 5.683a.687.687 0 0 1 .97-.067l2.965 2.578L19.67 5.88a.687.687 0 1 1 .825 1.1l-3.531 2.649a.688.688 0 0 1-.864-.032l-3.384-2.943a.687.687 0 0 1-.068-.97ZM16.128 23.104a.688.688 0 0 1 .84-.005l3.09 2.354a.687.687 0 1 1-.833 1.094l-2.668-2.033-2.966 2.322a.687.687 0 0 1-.848-1.083l3.385-2.649Z"/><path d="M12.51 9.524a.687.687 0 0 1 .618-.055l3.457 1.383 3.744-1.11a.687.687 0 0 1 .873.542l.55 3.16 2.482 2.344a.687.687 0 0 1-.014 1.012l-2.638 2.361-.98 3.916a.687.687 0 0 1-.94.463l-3.148-1.368-3.432 1.098a.687.687 0 0 1-.895-.602l-.268-3.48-3.237-2.023a.688.688 0 0 1-.048-1.133l3.283-2.462.27-3.515a.687.687 0 0 1 .322-.531Zm.976 1.57-.222 2.892a.687.687 0 0 1-.273.498l-2.73 2.047 2.682 1.676a.687.687 0 0 1 .32.53l.228 2.959 2.85-.912a.687.687 0 0 1 .484.024l2.64 1.148.834-3.333a.688.688 0 0 1 .208-.346l2.239-2.003-2.105-1.988a.687.687 0 0 1-.205-.382l-.457-2.623-3.232.957a.687.687 0 0 1-.451-.02l-2.81-1.124Z"/><path d="M16.54 11.064a.516.516 0 0 1 .467.274l1.163 2.197 2.747-.262a.515.515 0 0 1 .5.764l-1.32 2.374 1.298 1.945a.516.516 0 0 1-.43.802h-2.763l-1.185 2.501a.516.516 0 0 1-.932-.001l-1.055-2.24-2.361-.263a.515.515 0 0 1-.373-.799l1.281-1.92-1.575-2.364a.516.516 0 0 1 .48-.799l2.58.258 1.023-2.171a.516.516 0 0 1 .454-.296Zm.038 1.668-.737 1.568a.516.516 0 0 1-.518.294l-1.858-.186 1.16 1.741a.515.515 0 0 1 0 .572l-1 1.503 1.806.2c.178.02.333.131.41.293l.712 1.514.857-1.81a.516.516 0 0 1 .466-.294h2.127l-.938-1.406a.515.515 0 0 1-.021-.536l.995-1.792-2.114.201a.516.516 0 0 1-.505-.272l-.842-1.59Z"/></g><defs><filter id="a" x="0" y="0" width="37" height="37" filterUnits="userSpaceOnUse" color-interpolation-filters="sRGB"><feFlood flood-opacity="0" result="BackgroundImageFix"/><feColorMatrix in="SourceAlpha" values="0 0 0 0 0 0 0 0 0 0 0 0 0 0 0 0 0 0 127 0" result="hardAlpha"/><feOffset dx="4" dy="4"/><feColorMatrix values="0 0 0 0 0 0 0 0 0 0 0 0 0 0 0 0 0 0 0.2 0"/><feBlend in2="BackgroundImageFix" result="effect1_dropShadow_503_2175"/><feBlend in="SourceGraphic" in2="effect1_dropShadow_503_2175" result="shape"/></filter></defs></svg>
